X:134
T: IM SCHATTEN GRUENER BAEUME
N: B0165A
O: Europa, Mitteleuropa, Deutschland, Fulda
R: Ballade, Romanze
M: 6/8
L: 1/8
K: G
D | G2GGFG | B2AG2
D | A2AA2B | c2BA2
d | d2FGAB | A3z2
A | A2dA2G | GFz3
A | A2dA2G | FAz3
D | G2GGFG | B3G2
G | AcBAGF | G4z

@@@ Tune index: 1937
